stuff/config/qss/Default/imgs/black/segment_linked.svg

<?xml version="1.0" encoding="UTF-8" standalone="no"?><!DOCTYPE svg PUBLIC "-//W3C//DTD SVG 1.1//EN" "http://www.w3.org/Graphics/SVG/1.1/DTD/svg11.dtd"><svg width="100%" height="100%" viewBox="0 0 13 11" version="1.1" xmlns="http://www.w3.org/2000/svg" xmlns:xlink="http://www.w3.org/1999/xlink" xml:space="preserve" style="fill-rule:evenodd;clip-rule:evenodd;stroke-linejoin:round;stroke-miterlimit:1.41421;"><path d="M6,6l1,0l0,-2l5,0l0,5l-5,0l0,-2l-1,0l0,2l-5,0l0,-5c1.667,0 3.333,0 5,0l0,2Zm2,1l0,1l3,0l0,-3c-1,0 -2,0 -3,0l0,1l1,0l0,1l-1,0Zm-3,-1l0,-1l-3,0l0,3c1,0 2,0 3,0l0,-1l-1,0l0,-1l1,0Z" style="fill:#d6d6d6;"/></svg>

<?xml version="1.0" encoding="utf-8"?>
<!-- Generator: Adobe Illustrator 21.0.2, SVG Export Plug-In . SVG Version: 6.00 Build 0)  -->
<svg version="1.1"
	 id="svg2" inkscape:version="0.91 r13725" sodipodi:docname="segment_linked.svg" xmlns:cc="http://creativecommons.org/ns#" xmlns:dc="http://purl.org/dc/elements/1.1/" xmlns:inkscape="http://www.inkscape.org/namespaces/inkscape" xmlns:rdf="http://www.w3.org/1999/02/22-rdf-syntax-ns#" xmlns:sodipodi="http://sodipodi.sourceforge.net/DTD/sodipodi-0.dtd" xmlns:svg="http://www.w3.org/2000/svg"
	 xmlns="http://www.w3.org/2000/svg" xmlns:xlink="http://www.w3.org/1999/xlink" x="0px" y="0px" viewBox="0 0 13 11"
	 style="enable-background:new 0 0 13 11;" xml:space="preserve">
<style type="text/css">
	.st0{fill:#D6D6D6;}
</style>
<path id="path4" inkscape:connector-curvature="0" class="st0" d="M6,6h1V4h5v5H7V7H6v2H1V4c1.7,0,3.3,0,5,0V6z M8,7v1h3V5
	c-1,0-2,0-3,0v1h1v1H8z M5,6V5H2v3c1,0,2,0,3,0V7H4V6H5z"/>
</svg>
